X:2822
T:In Praise of Christmas
T:To Drive the Cold Winter Away
O:england
M:4/4
L:1/8
K:Em
E | G2    F<E   B3    e |  d2   c<B      g3      G |
w:All hail to the days that  mer- it  more praise, Than
A3  B    c2     d<c |  (B4 B3)   E |
w:all the  months of the  year,_   And
G2   F<E      B3     e |  d2   c<B     g3      G |
w:wel- come the nights that dou- ble de- lights, As
A3   B   c2  d<c |   (B4  B3)   e |
w:well for the poor as the peer  Good
d2   c<B      d3   e |  c2   B<A      c3      d |
w:for- tune at- tend each mer- ry man's friend, That
B2   A<G     F3   E |  g4 g3   e |
w:doth but the best that he may, For-
d2   c<B      d3     e |  c2  B<A      c3     d |
w:get- ting old wrongs with ca- rols and songs, To
B2    A<G      F2   E<F | (E4 E3) |]
w:drive the cold win- ter a- way._


